!!!COM: Beethoven
!!!OTL: 7 Variations on a Quartet by Winter
!!!Variation: Theme a
**function	**harm	**kern	**kern
*	*	*clefG2	*clefG2
*	*	*k[b-]	*k[b-]
*M2/4	*M2/4	*M2/4	*M2/4
*F:	*F:	*F:	*F:
4T	4I	4r	4aa 4ccc
=1	=1	=1	=1
2T	2I	2f	8ff'L 8aa'
.	.	.	8cc'J 8ff'
.	.	.	8ff'L 8aa'
.	.	.	8aa'J 8ccc'
=2	=2	=2	=2
4T	4V7	(4c 4e 4g	(4gg 4bb-
4T	4I	4f)	4ff) 4aa
=3	=3	=3	=3
2T	2V	4c	8ee'L 8gg'
.	.	.	8dd'J 8ff'
.	.	4c	8cc'L 8ee'
.	.	.	8dd'J 8ff'
=4	=4	=4	=4
4T	4V	8c	8ee 8gg
.	.	8r	8r
4T	4I	4r	4aa 4ccc
=5	=5	=5	=5
2T	2I	2f	8ff'L 8aa'
.	.	.	8cc'J 8ff'
.	.	.	8ff'L 8aa'
.	.	.	8aa'J 8ccc'
=6	=6	=6	=6
4T	4V7	(4c 4e 4g	(4gg 4bb-
4T	4I	4f) 4a	4ff) 4aa
=7	=7	=7	=7
4P	4iib	8B-L	8ddL 8gg
.	.	8B-J	8ddJ 8gg
4D	4V7	8cL	(8b-L 8ee
.	.	8cJ	16b-L 16dd
.	.	.	16eeJJ)
*	*	*clefF4	*
=8	=8	=8	=8
4T	4I	4F	8a 8ff
.	.	.	8r
=9	=9	=9	=9
2T	2I	4F 4c	8fL 8a
.	.	.	8cJ 8f
.	.	4r	8fL 8a
.	.	.	8aJ 8cc
=10	=10	=10	=10
.	.	.	q8a q8cc
4T	4V7b	(4E 4c	(4g 4b-
4T	4I	4F) 4c	4f) 4a
=11	=11	=11	=11
2T	2V	8C 8c	8eL 8g
.	.	8r	8dJ 8f
.	.	8C	8cL 8e
.	.	8r	8dJ 8f
=12	=12	=12	=12
4T	4V	4C	4e 4g
4T	4I	4r	4a 4cc
=13	=13	=13	=13
2T	2I	4F 4c	8fL 8a
.	.	.	8cJ 8f
.	.	4r	8fL 8a
.	.	.	8aJ 8cc
=14	=14	=14	=14
.	.	.	q8a q8cc
4T	4V7b	(4E 4c	(4g 4b-
4T	4I	4F) 4c	4f) 4a
=15	=15	=15	=15
4D	4Cc/V	8G	8eL 8g
.	.	8r	8eJ 8g
4D	4V7/V	8GG	8fL 8a
.	.	8r	8dJ 8b
=16	=16	=16	=16
2D	2I/V	2C	4e 4cc
.	.	.	(8fL 8dd
.	.	.	8gJ) 8ee
=17	=17	=17	=17
4D	4Cc/V	8G 8e	(8ccL
.	.	8r	16ggJk)
.	.	.	16r
4D	4V/V	8G 8d	(8bL
.	.	8r	16ggJk)
.	.	.	16r
=18	=18	=18	=18
2D	2I/V	2C	4e 4cc
.	.	.	(8fL 8dd
.	.	.	8gJ) 8ee
=19	=19	=19	=19
4D	4Cc/V	8G 8e	(8ccL
.	.	8r	16ggJk)
.	.	.	16r
4D	4V/V	8G 8d	(8bL
.	.	8r	16ggJk)
.	.	.	16r
=20	=20	=20	=20
4D	4I/V	4C;	4e; 4cc;
=21	=21	=21	=21
2T	2I	8F 8c	(8aL
.	.	8r	8fJ
.	.	8F 8c	8aL 8ff
.	.	8r	8ccJ)
=22	=22	=22	=22
.	.	.	q8cc
4T	4V7b	8E 8c	(4g 4b-
.	.	8r	.
4T	4I	8F 8c	4f) 4a
.	.	8r	.
=23	=23	=23	=23
2T	2V7	8B-L 8c	8eL 8g
.	.	8AJ 8c	8fJ
.	.	.	q8cc
.	.	8EL 8c	8gL 8b-
.	.	8FJ 8c	8fJ 8a
=24	=24	=24	=24
4T	4V	4C 4c	4e 4g
4T	4I	4r	4cc
=25	=25	=25	=25
2T	2I	2F 2c	8aL 8cc
.	.	.	8aJ
.	.	.	(16ffLL
.	.	.	16ee
.	.	.	16dd
.	.	.	16ccJJ)
=26	=26	=26	=26
.	.	.	q8cc
4T	4V7b	(4E 4c	(4g 4b-
4T	4I	4F) 4c	4f) 4a
=27	=27	=27	=27
*	*	*	*^
2D	2V7/V	2G 2B	4.g	8gL
.	.	.	.	8ffJ
.	.	.	.	8eeL
.	.	.	8fJ	8dd
*	*	*	*v	*v
=28	=28	=28	=28
*	*	*^	*
4D	4V	4C	8EL	4e 4cc
.	.	.	8GJ	.
*	*	*v	*v	*
=29	=29	=29	=29	=29
.	.	.	.	q8dd
4D	4I/V	4C	8EL	(16ccLL
.	.	.	.	16b
.	.	.	8GJ	16cc
.	.	.	.	16eeJJ)
.	.	.	.	q8ee
4D	4V7/V	4GG	8FL	(16ddLL
.	.	.	.	16cc
.	.	.	8GJ	16dd
.	.	.	.	16bJJ)
=30	=30	=30	=30	=30
2D	2I/V	4C	8EL	4cc
.	.	.	8GJ	.
.	.	4C	8EL	(16ggLL
.	.	.	.	16ff
.	.	.	8GJ	16ee
.	.	.	.	16ddJJ)
=31	=31	=31	=31	=31
.	.	.	.	q8dd
4D	4I/V	4C	8EL	(16ccLL
.	.	.	.	16b
.	.	.	8GJ	16cc
.	.	.	.	16eeJJ)
.	.	.	.	q8ee
4D	4V7/V	4GG	8FL	(16ddLL
.	.	.	.	16cc
.	.	.	8GJ	16dd
.	.	.	.	16bJJ)
=32	=32	=32	=32	=32
4D	4I/V	8C	8E	8cc
*	*	*v	*v	*
.	.	8r	8r
4D	4vi/V	4r	4a 4cc
=33	=33	=33	=33
2D	2V7/V/V	8D 8d	(8b-L 8dd
.	.	8r	8aJ) 8cc
.	.	8D 8d	8g'L 8b-'
.	.	8r	8f#'J 8a'
=34	=34	=34	=34
2D	2V/V	8G 8d	8g 8b-
.	.	8r	8r
.	.	8G	4g 4b-
.	.	8r	.
=35	=35	=35	=35
2D	2V7	8C 8c	(8aL 8cc
.	.	8r	8gJ) 8b-
.	.	8C 8c	8f'L 8a'
.	.	8r	8e'J 8g'
=36	=36	=36	=36
4T	4I	8F 8c	4f 4a
.	.	8r	.
=37	=37	=37	=37
2T	2I	2F 2c	8fL 8a
.	.	.	8cJ 8f
.	.	.	8fL 8a
.	.	.	8aJ 8cc
=38	=38	=38	=38
.	.	.	q8a q8cc
4T	4V7b	(4E 4c	(4g 4b-
4T	4I	4F) 4c	4f) 4a
=39	=39	=39	=39
4P	4IV	8BB-L 8B-	8f'L 8dd'
.	.	8BB-J 8B-	8f'J 8dd'
4D	4V7	8CL 8A	8f'L 8cc'
.	.	8CJ 8G	8B-'J 8e'
=40	=40	=40	=40
2T	2I	4F	4A 4f
.	.	4r	4r
=41	=41	=41	=41
2T	2V7	8GL 8B-	12ccL
.	.	.	12ee
.	.	8CJ	.
.	.	.	12ddJ
.	.	8GL 8B-	12ccL
.	.	.	12dd
.	.	8CJ	.
.	.	.	12eeJ
=42	=42	=42	=42
2T	2Ic	8FL 8A	12ffL
.	.	.	12aa
.	.	8CJ	.
.	.	.	12ggJ
.	.	8FL 8A	12ffL
.	.	.	12ee
.	.	8CJ	.
.	.	.	12ddJ
=43	=43	=43	=43
2T	2V	8EL 8G	12ccL
.	.	.	12b
.	.	8CJ	.
.	.	.	12ccJ
.	.	8EL 8G	12ccL
.	.	.	12dd
.	.	8CJ	.
.	.	.	12b-J
=44	=44	=44	=44
2T	2Ic	8FL 8A	4a
.	.	8CJ	.
.	.	8FL 8A	4r
.	.	8CJ	.
=45	=45	=45	=45
2T	2V7	8GL 8B-	12ccL
.	.	.	12ee
.	.	8CJ	.
.	.	.	12ddJ
.	.	8GL 8B-	12ccL
.	.	.	12dd
.	.	8CJ	.
.	.	.	12eeJ
=46	=46	=46	=46
4T	4I	8F 8A	12ffL
.	.	.	12aa
.	.	8r	.
.	.	.	12ggJ
4T	4vi	8D 8A	12ffL
.	.	.	12ee
.	.	8r	.
.	.	.	12ffJ
=47	=47	=47	=47
4P	4iib	8BB- 8G	12ddL
.	.	.	12gg
.	.	8r	.
.	.	.	12ffJ
4D	4V7	8C 8B-	12eeL
.	.	.	12dd
.	.	8r	.
.	.	.	12ccJ
=48	=48	=48	=48
4T	4I	4F 4A	4ff
4T	4V7	4C	4G 4B- 4e
=49	=49	=49	=49
4T	4I	4FF	4A 4f
=50	=50	=50	=50
2T	2I	8r	(16bb-LL
.	.	.	16aa
.	.	(8cc	16gg
.	.	.	16ffJJ
.	.	8aL	16eeLL
.	.	.	16ff
.	.	8fJ)	16gg
.	.	.	16aaJJ)
=51	=51	=51	=51
4T	4V7b	8r	(8cccL
.	.	8e	16ggJk) 16bb-
.	.	.	16r
4T	4I	8r	(8bb-L
.	.	8f	16ffJk) 16aa
.	.	.	16r
=52	=52	=52	=52
2T	2V	8r	(16aaLL
.	.	.	16ee) 16gg
.	.	8c	(16gg
.	.	.	16ddJJ) 16ff
.	.	8cL	(16ffLL
.	.	.	16cc) 16ee
.	.	8cJ	(16gg
.	.	.	16ddJJ) 16ff
=53	=53	=53	=53
4T	4V	8c	(8aaL
.	.	8r	16eeJk) 16gg
.	.	.	16r
4T	4I	4r	4cc 4ccc
=54	=54	=54	=54
2T	2I	8r	(16bb-LL
.	.	.	16aa
.	.	(8cc	16gg
.	.	.	16ffJJ
.	.	8aL	16eeLL
.	.	.	16ff
.	.	8fJ)	16gg
.	.	.	16aaJJ)
=55	=55	=55	=55
4T	4V7b	8r	(8cccL
.	.	8e	16ggJk) 16bb-
.	.	.	16r
4T	4I	8r	(8bb-L
.	.	8f	16ffJk) 16aa
.	.	.	16r
=56	=56	=56	=56
4P	4iib	8r	(8aaL
.	.	8B-	16ddJk) 16gg
.	.	.	16r
4D	4V7	8r	(8ffL
.	.	8c	16b-Jk) 16ee
.	.	.	16r
*	*	*clefF4	*
=57	=57	=57	=57
4T	4I	8r	(8ggL
.	.	8F	16aJk 16ff)
.	.	.	16r
=58	=58	=58	=58
2T	2I	8r	(16b-LL
.	.	.	16a
.	.	(8c	16g
.	.	.	16fJJ
.	.	8AL	16eLL
.	.	.	16f
.	.	8FJ)	16g
.	.	.	16aJJ)
=59	=59	=59	=59
4T	4V7b	8r	(16ccLL
.	.	.	16g
.	.	8E	16b-)
.	.	.	16b-'JJ
4T	4I	8r	(16b-LL
.	.	.	16f
.	.	8F	16a)
.	.	.	16a'JJ
=60	=60	=60	=60
2T	2V	8r	(16aLL
.	.	.	16e) 16g
.	.	8C	(16g
.	.	.	16dJJ) 16f
.	.	8CL	(16fLL
.	.	.	16c) 16e
.	.	8CJ	(16g
.	.	.	16dJJ) 16f
=61	=61	=61	=61
4T	4V	8C	(8aL
.	.	8r	16eJk) 16g
.	.	.	16r
4T	4I	4r	4c 4cc
=62	=62	=62	=62
2T	2I	8r	(16b-LL
.	.	.	16a
.	.	(8c	16g
.	.	.	16fJJ
.	.	8AL	16eLL
.	.	.	16f
.	.	8FJ)	16g
.	.	.	16aJJ)
=63	=63	=63	=63
4T	4V7b	8r	(16ccLL
.	.	.	16g
.	.	8E	16b-)
.	.	.	16b-'JJ
4T	4I	8r	(16b-LL
.	.	.	16f
.	.	8F	16a)
.	.	.	16a'JJ
=64	=64	=64	=64
4D	4Cc/V	8r	(16aLL
.	.	.	16e
.	.	8G	16g)
.	.	.	16g'JJ
4D	4V/V	8r	(16aLL
.	.	.	16f
.	.	8GG	16b
.	.	.	16dJJ)
=65	=65	=65	=65
2D	2V	8C'L	(16ccLL
.	.	.	16e
.	.	8CC'J	16cc#
.	.	.	16eJJ
.	.	4r	16ddLL
.	.	.	16f
.	.	.	16ee
.	.	.	16gJJ)
=66	=66	=66	=66
4D	4Cc/V	8cL 8e	16r
.	.	.	(16ccLL
.	.	8GJ	16gg)
.	.	.	16gg'JJ
4D	4V/V	8dL 8f	16r
.	.	.	(16bLL
.	.	8GJ	16gg)
.	.	.	16gg'JJ
=67	=67	=67	=67
2D	2V	8c'L	(16ccLL
.	.	.	16e
.	.	8C'J	16cc#
.	.	.	16eJJ
.	.	4r	16ddLL
.	.	.	16f
.	.	.	16ee
.	.	.	16gJJ)
=68	=68	=68	=68
4D	4Cc/V	8cL 8e	16r
.	.	.	(16ccLL
.	.	8GJ	16gg)
.	.	.	16gg'JJ
4D	4V/V	8dL 8f	16r
.	.	.	(16bLL
.	.	8GJ	16gg)
.	.	.	16gg'JJ
=69	=69	=69	=69
4D	4V	4c; 4e;	4cc;
=70	=70	=70	=70
2T	2I	8r	16b-LL
.	.	.	16a
.	.	(8c	16ff
.	.	.	16ccJJ
.	.	8A	16aaLL
.	.	.	16ff
.	.	8F)	16cc
.	.	.	16aJJ)
=71	=71	=71	=71
*	*	*^	*
4T	4V7b	4E	8E	(16ccLL
.	.	.	.	16b-
.	.	.	4c	16gg)
.	.	.	.	16gg'JJ
4T	4I	4F	.	(16b-LL
.	.	.	.	16a
.	.	.	8c	16ff)
.	.	.	.	16ff'JJ
*	*	*v	*v	*
=72	=72	=72	=72
2T	2V7	8B-'L 8c'	16g'LL
.	.	.	(16ee
.	.	8A'J 8c'	16a)
.	.	.	(16ffJJ
.	.	8E'L 8c'	16b-LL)
.	.	.	(16gg
.	.	8F'J 8c'	16a)
.	.	.	(16ffJJ
=73	=73	=73	=73
4T	4V	8C 8c	16gLL)
.	.	.	(16ee
.	.	8r	16cc)
.	.	.	(16ccJJ
4T	4I	8r	16bLL
.	.	.	16cc
.	.	8r	16dd
.	.	.	16ccJJ
=74	=74	=74	=74
2T	2I	8r	16b-LL
.	.	.	16a
.	.	(8c	16ff
.	.	.	16ccJJ
.	.	8AL	16aaLL
.	.	.	16ff
.	.	8FJ)	16cc
.	.	.	16aJJ)
=75	=75	=75	=75
*	*	*^	*
4T	4V7b	4E	8E	(16ccLL
.	.	.	.	16b-
.	.	.	4c	16gg)
.	.	.	.	16gg'JJ
4T	4I	4F	.	(16b-LL
.	.	.	.	16a
.	.	.	([8c	16ff)
.	.	.	.	16ff'JJ
=76	=76	=76	=76	=76
2D	2V7/V	4.G	8cL]	(16a-LL
.	.	.	.	16g
.	.	.	8BJ	16ff)
.	.	.	.	16ff'JJ
.	.	.	4d)	(16bLL
.	.	.	.	16g
.	.	8G	.	16b
.	.	.	.	16fJJ)
*	*	*v	*v	*
=77	=77	=77	=77
2D	2V	8c 8e	(16ccLL
.	.	.	16cc#
.	.	8r	16dd
.	.	.	16ee-JJ
.	.	4r	16eeLL
.	.	.	16ff
.	.	.	16ff#
.	.	.	16ggJJ)
=78	=78	=78	=78
4D	4Cc/V	(8GL	(16aaLL
.	.	.	16gg
.	.	8cJ 8e	16ff
.	.	.	16eeJJ)
4D	4V7/V	8GL	(16eeLL
.	.	.	16dd
.	.	8dJ) 8f	16cc
.	.	.	16bJJ)
=79	=79	=79	=79
2D	2V	8c 8e	(16ccLL
.	.	.	16cc#
.	.	8r	16dd
.	.	.	16ee-JJ
.	.	4r	16eeLL
.	.	.	16ff
.	.	.	16ff#
.	.	.	16ggJJ)
=80	=80	=80	=80
4D	4Cc/V	(8GGL	(16aaLL
.	.	.	16gg
.	.	8CJ 8E	16ff
.	.	.	16eeJJ)
4D	4V7/V	8GGL	(16eeLL
.	.	.	16dd
.	.	8DJ) 8F	16cc
.	.	.	16bJJ)
=81	=81	=81	=81
4D	4V	8C 8E	(16bLL
.	.	.	16cc
.	.	8r	16b
.	.	.	16ccJJ
4D	4I	4r	16bLL
.	.	.	16cc
.	.	.	16dd
.	.	.	16ccJJ)
=82	=82	=82	=82
2D	2V/ii	8r	(16ee-LL
.	.	.	16a
.	.	8f#	16dd)
.	.	.	16dd'JJ
.	.	8r	(16cc#LL
.	.	.	16dd
.	.	8d	16f#)
.	.	.	16f#'JJ
=83	=83	=83	=83
4P	4ii	8r	(16ccLL
.	.	.	16d
.	.	8G	16b-)
.	.	.	16b-'JJ
4P	4V7d/V	8r	(16ccLL
.	.	.	16d
.	.	8F	16b)
.	.	.	16b'JJ
=84	=84	=84	=84
2D	2V	8r	(16ddLL
.	.	.	16g
.	.	8E	16cc)
.	.	.	16cc'JJ
.	.	8r	(16bLL
.	.	.	16cc
.	.	8C	16e)
.	.	.	16e'JJ
=85	=85	=85	=85
4T	4I	8r	(16b-LL
.	.	.	16c
.	.	8FF	16a)
.	.	.	16a'JJ
=86	=86	=86	=86
2T	2I	8r	16b-LL
.	.	.	16a
.	.	(8c	16ff
.	.	.	16ccJJ
.	.	8AL	16aaLL
.	.	.	16ff
.	.	8FJ	16cc
.	.	.	16aJJ)
=87	=87	=87	=87
4T	4V7	8EL	(16ccLL
.	.	.	16b-
.	.	8CJ	16gg)
.	.	.	16gg'JJ
4T	4I	8FL	(16b-LL
.	.	.	16a
.	.	8AJ)	16ff)
.	.	.	16ff'JJ
=88	=88	=88	=88
8P	8iib	(8B-L	(16a-LL
.	.	.	16g
8P	8V7b/V	8BJ)	16ff)
.	.	.	16ff'JJ
8D	8Cc	8c'L	(16aLL
.	.	.	16ff
8D	8V7	8C'J	16b-
.	.	.	16eeJJ)
=89	=89	=89	=89
2T	2I	8F'L	16ff'LL
.	.	.	(16cc
.	.	8FF'J	16b
.	.	.	16ccJJ
.	.	4r	16b-LL
.	.	.	16a
.	.	.	16g
.	.	.	16fJJ)
=90	=90	=90	=90
2T	2V7	8C 8G 8B-	16r
.	.	.	(16bLL
.	.	8r	16dd
.	.	.	16ccJJ)
.	.	8C 8G 8B-	16r
.	.	.	(16dd#LL
.	.	8r	16ee
.	.	.	16ccJJ)
=91	=91	=91	=91
2T	2Ic	8C 8F 8A	16r
.	.	.	(16eeLL
.	.	8r	16ff
.	.	.	16ccJJ)
.	.	8C 8F 8A	16r
.	.	.	(16gg#LL
.	.	8r	16aa
.	.	.	16ccJJ)
=92	=92	=92	=92
2T	2V7	8C 8E 8G	16r
.	.	.	(16bbLL
.	.	8r	16ccc
.	.	.	16ccJJ)
.	.	8C 8E 8G	16r
.	.	.	(16aaLL
.	.	8r	16bb-
.	.	.	16ccJJ)
=93	=93	=93	=93
2T	2I	8F 8A	16r
.	.	.	(16gg#LL
.	.	8r	16bb-
.	.	.	16aaJJ
.	.	4r	16ggLL
.	.	.	16ff
.	.	.	16ee
.	.	.	16ddJJ)
*	*	*clefG2	*
=94	=94	=94	=94
2T	2V7	8c 8g 8b-	16r
.	.	.	(16bLL
.	.	8r	16dd
.	.	.	16ccJJ)
.	.	8c 8g 8b-	16r
.	.	.	(16dd#LL
.	.	8r	16ff
.	.	.	16eeJJ)
=95	=95	=95	=95
4T	4I	8f 8a	16r
.	.	.	(16eeLL
.	.	8r	16gg
.	.	.	16ffJJ)
4T	4vi	8d 8f 8a	16r
.	.	.	16gg#LL
.	.	8r	16aa
.	.	.	16ffJJ
=96	=96	=96	=96
4P	4iib	8B- 8d 8g	16r
.	.	.	(16ccc#LL
.	.	8r	16ddd
.	.	.	16ggJJ)
4D	4V7	8c 8g 8b-	16r
.	.	.	(16aaLL
.	.	8r	16bb-
.	.	.	16eeJJ)
=97	=97	=97	=97
4T	4I	8f 8a	16r
.	.	.	(16eeLL
.	.	8r	16ff
.	.	.	16ccJJ)
*	*	*clefF4	*
4T	4V	8C 8E	16r
.	.	.	(16aLL
.	.	8r	16b-
.	.	.	16gJJ)
=98	=98	=98	=98
4T	4I	8FF 8F	8f
.	.	8r	8r
=99	=99	=99	=99
2T	2I	(16FLL	(16aLL
.	.	32GL	32b-L
.	.	32AJJ	32ccJJ
.	.	32B-LL	32ddLL
.	.	32c	32ee
.	.	32d	32ff
.	.	32eJJJ)	32ggJJJ)
.	.	8f'L	8aa'L
.	.	8a'J	8ccc'J
=100	=100	=100	=100
*	*	*	*^
4T	4Vb	(8gL	8r	(4bb-
.	.	8eJ	4gg	.
4T	4I	8fL	.	4aa)
.	.	16AL	[8ff	.
.	.	16BJJ)	.	.
=101	=101	=101	=101	=101
2T	2V	8c'L	16ffLK]	(8ggL
.	.	.	8ee	.
.	.	8C'J	.	8ffJ
.	.	.	8dd	.
.	.	8C'L	.	8eeL
.	.	.	8cc	.
.	.	8C'J	.	8ffJ
.	.	.	[16ddJk	.
=102	=102	=102	=102	=102
4.T	4.V	8C'L	16ddLK]	8ggL
.	.	.	8ee	.
.	.	8C'J	.	8aa
.	.	.	8ff	.
.	.	8C'L	.	8gg)
.	.	.	16eeJ	.
*	*	*	*v	*v
8T	8Ib	8A'J	8cc'J
=103	=103	=103	=103
2T	2I	(16FLL	(16aLL
.	.	32GL	32b-L
.	.	32AJJ	32ccJJ
.	.	32B-LL	32ddLL
.	.	32c	32ee
.	.	32d	32ff
.	.	32eJJJ)	32ggJJJ)
.	.	8f'L	8aa'L
.	.	8a'J	8ccc'J
=104	=104	=104	=104
*	*	*	*^
4T	4Vb	(8gL	8r	(4bb-
.	.	8eJ	4gg	.
4T	4vi	8fL	.	[4aa
.	.	8dJ)	8ff	.
=105	=105	=105	=105	=105
8P	8iib	(8B-L	4dd	8aaL]
8P	8V7/V	8BJ	.	8ggJ
8D	8Cc	8cL	8aL	8ffL
8D	8V7	8CJ)	[8b-J	[8eeJ
=106	=106	=106	=106	=106
4.T	4.I	8FL	4b-]	8eeL]
.	.	8CJ	.	8ggJ
.	.	8FF	8a	8ff)
*	*	*	*v	*v
=107	=107	=107	=107
2T	2I	(16FFLL	(16ALL
.	.	32GGL	32B-L
.	.	32AAJJ	32cJJ
.	.	32BB-LL	32dLL
.	.	32C	32e
.	.	32D	32f
.	.	32EJJJ)	32gJJJ)
.	.	8F'L	8a'L
.	.	8A'J	8cc'J
=108	=108	=108	=108
*	*	*	*^
4T	4V7b	(8GL	(4b-	8r
.	.	8EJ	.	4gg
8T	8I	8FL	4a	.
8T	8V7b/V	8BBJ)	.	[8ff
=109	=109	=109	=109	=109
2T	2V	8C'L	8gL	16ffLK]
.	.	.	.	8ee
.	.	8CC'J	8fJ	.
.	.	.	.	8dd
.	.	8CC'L	8eL	.
.	.	.	.	8cc
.	.	8CC'J	8fJ)	.
.	.	.	.	[16ddJk
=110	=110	=110	=110	=110
4.T	4.V	4.CC	(4f#	8ddL]
.	.	.	.	8dd#J
.	.	.	8g)	8ee
*	*	*	*v	*v
8T	8Ib	8AA'	8c'
=111	=111	=111	=111
2T	2I	(16FFLL	(16ALL
.	.	32GGL	32B-L
.	.	32AAJJ	32cJJ
.	.	32BB-LL	32dLL
.	.	32C	32e
.	.	32D	32f
.	.	32EJJJ)	32gJJJ)
.	.	8F'L	8a'L
.	.	8A'J	8cc'J
=112	=112	=112	=112
*	*	*	*^
4T	4V7b	(8GL	4b-	8r
.	.	8EJ	.	4gg
8T	8I	8FL	4a	.
8T	8V7b/V	8BBJ)	.	[8ff
=113	=113	=113	=113	=113
4D	4V	(8CL	8gL	16ffLK]
.	.	.	.	8ee
.	.	8CCJ	(8gJ	.
.	.	.	.	8ee
4D	4V/V	8GGL	8aL	.
.	.	.	.	8ff
.	.	8GGGJ)	8bJ)	.
.	.	.	.	16ddJk
*	*	*	*v	*v
=114	=114	=114	=114
2D	2V	(16CCLL	4cc
.	.	32DDL	.
.	.	32EEJJ	.
.	.	32FFLL	.
.	.	32GG	.
.	.	32AA	.
.	.	32BBJJJ)	.
.	.	8C'L	4r
.	.	8E'J	.
=115	=115	=115	=115
2D	2V/V	4.GG 4.G	(16ggLL
.	.	.	32ffL
.	.	.	32eeJJ
.	.	.	32ddLL
.	.	.	32cc
.	.	.	32b
.	.	.	32aJJJ)
.	.	.	8g'L
.	.	8GG' 8G'	8f'J 8b'
=116	=116	=116	=116
2D	2V	(16CLL	8e 8cc
.	.	32DL	.
.	.	32EJJ	.
.	.	32FLL	8r
.	.	32G	.
.	.	32A	.
.	.	32BJJJ)	.
.	.	8c'L	4r
.	.	8e'J	.
=117	=117	=117	=117
2D	2V7/V	4.G 4.g	(16ggLL
.	.	.	32ffL
.	.	.	32eeJJ
.	.	.	32ddLL
.	.	.	32cc
.	.	.	32b
.	.	.	32aJJJ)
.	.	.	8g'L
.	.	8G 8f	8b'J
=118	=118	=118	=118
4.D	4.V	4.c; 4.e;	4.cc;
=119	=119	=119	=119
2T	2I	2r	(32aLLL
.	.	.	32f
.	.	.	32g
.	.	.	32aJJ
.	.	.	32b-LL
.	.	.	32cc
.	.	.	32dd
.	.	.	32eeJJJ)
.	.	.	8ff'L
.	.	.	8cc'J
=120	=120	=120	=120
4T	4V7b	(32ELLL	(4b-
.	.	32F	.
.	.	32G	.
.	.	32AJJ	.
.	.	32B-LL	.
.	.	32c	.
.	.	32d	.
.	.	32eJJJ)	.
4T	4I	8f'L	4a)
.	.	8c'J	.
=121	=121	=121	=121
*	*	*^	*
2T	2V7	8B-L	[2c	(8gL
.	.	8AJ	.	8fJ
.	.	8GL	.	8eL 8b-
.	.	8FJ	.	[8fJ [8a
=122	=122	=122	=122	=122
4T	4V	4.C	4.c]	8fL] 8a]
.	.	.	.	8d#J 8f#
4T	4I	.	.	8e) 8g
*	*	*v	*v	*
.	.	8c'	8r
=123	=123	=123	=123
2T	2I	(32ALLL	2r
.	.	32F	.
.	.	32G	.
.	.	32AJJ	.
.	.	32B-LL	.
.	.	32c	.
.	.	32d	.
.	.	32eJJJ)	.
.	.	8f'L	.
.	.	8c'J	.
=124	=124	=124	=124
8T	8V7d	(8B-	(32eLLL
.	.	.	32f
.	.	.	32g
.	.	.	32aJJ
4.T	4.Ib	4A	32b-LL
.	.	.	32cc
.	.	.	32dd
.	.	.	32eeJJJ)
.	.	.	[4ff
.	.	8A-)	.
=125	=125	=125	=125
*	*	*^	*
2D	2V7/V	2G	(8GnL	8ffL]
.	.	.	8BJ	(16eeL
.	.	.	.	16ddJJ)
.	.	.	8dL	(16ddLL
.	.	.	.	16cc)
.	.	.	8fJ)	(16cc
.	.	.	.	16bJJ)
*	*	*v	*v	*
=126	=126	=126	=126
4D	4V	8eL	(8ccL
.	.	.	q16dd
.	.	.	q16cc
.	.	.	q16bn
.	.	8cJ	16ccL
.	.	.	16ddJJ)
=127	=127	=127	=127
4D	4Cc/V	8GL	(16ff#LL
.	.	.	16gg)
.	.	8cJ 8e	16ee'
.	.	.	16cc'JJ
4D	4V7/V	8GL	(16eeLL
.	.	.	16ff)
.	.	8dJ 8f	16dd'
.	.	.	16b'JJ
=128	=128	=128	=128
2D	2I/V	8eL	24ccLL
.	.	.	24dd
.	.	.	24ccJ
.	.	8cJ	24bL
.	.	.	24cc
.	.	.	24ddJJ
.	.	4r	24eeLL
.	.	.	24ff
.	.	.	24eeJ
.	.	.	24ddL
.	.	.	24ee
.	.	.	24ffJJ
=129	=129	=129	=129
4D	4Cc/V	8GGL	24ff#LL
.	.	.	24gg
.	.	.	24aaJ
.	.	8CJ 8E	24ggL
.	.	.	24ee
.	.	.	24ccJJ
4D	4V7/V	8GGL	24eeLL
.	.	.	24ff
.	.	.	24ggJ
.	.	8DJ 8F	24ffL
.	.	.	24dd
.	.	.	24bJJ
=130	=130	=130	=130
2D	2I/V	4C 4E	(4cc
.	.	4r	4cc#)
=131	=131	=131	=131
2D	2V/ii	4r	8dd'L
.	.	.	8dd'J
*	*	*clefG2	*
.	.	8r	8.ddL
.	.	8f#	.
.	.	.	32cc#LL
.	.	.	32ddJJJ
=132	=132	=132	=132
4P	4ii	8g'L	(4.b-
.	.	8g'J	.
4P	4V/V	8.gL	.
.	.	.	8b)
.	.	32f#LL	.
.	.	32gJJJ	.
=133	=133	=133	=133
2D	2Vb	4.e	8cc'L
.	.	.	8cc'J
.	.	.	8.ccL
.	.	8e	.
.	.	.	32bLL
.	.	.	32ccJJJ
=134	=134	=134	=134
4T	4I	8f'L	[4a
.	.	8f'J	.
16T	16I	16f	16aLL]
=135	=135	=135	=135
2T	2I	16F'LL	16a'LL
.	.	(32GL	(32b-L
.	.	32AJJ	32ccJJ
.	.	32B-LL	32ddLL
.	.	32c	32ee
.	.	32d	32ff
.	.	32eJJJ)	32ggJJJ)
.	.	8f'L	8aa'L
.	.	8a'J	8ccc'J
=136	=136	=136	=136
*	*	*	*^
4T	4V7b	(8gL	8r	(4bb-
.	.	8eJ	4gg	.
4T	4I	8fL	.	4aa)
.	.	8dJ)	[8ff	.
=137	=137	=137	=137	=137
4P	4IV	(8B-L	8ffL]	(4ddd
.	.	8BJ)	8ffJ	.
4D	4V7	8c'L	8aa'L	8ccc'L)
.	.	8C'J	8b-'J	8ee'J
=138	=138	=138	=138	=138
4T	4I	8FL	8a	8ff
*	*	*	*v	*v
.	.	8FFJ	8r
=139	=139	=139	=139
2T	2V7	4C' 4G' 4B-'	32r
.	.	.	(32cLLL
.	.	.	32d
.	.	.	32eJJ
.	.	.	32fLL
.	.	.	32g
.	.	.	32a
.	.	.	32bJJJ)
.	.	8r	8cc'L
.	.	8C' 8G' 8B-'	8ee'J
=140	=140	=140	=140
2T	2Ic	4C' 4F' 4A'	32r
.	.	.	(32fLLL
.	.	.	32g
.	.	.	32aJJ
.	.	.	32b-LL
.	.	.	32cc
.	.	.	32dd
.	.	.	32eeJJJ)
.	.	8r	8ff'L
.	.	8C' 8F' 8A'	8aa'J
=141	=141	=141	=141
2T	2V	4C' 4E' 4G'	32r
.	.	.	(32ccLLL
.	.	.	32dd
.	.	.	32eeJJ
.	.	.	32ffLL
.	.	.	32gg
.	.	.	32aa
.	.	.	32bbJJJ)
.	.	8r	8ccc'L
.	.	8C' 8E' 8G'	8bb-'J
=142	=142	=142	=142
2T	2I	4F 4A	16aa'LL
.	.	.	16ccc'
.	.	.	16aa'
.	.	.	16ff'JJ
.	.	4r	16cc'LL
.	.	.	16a'
.	.	.	16f'
.	.	.	16cc'JJ
=143	=143	=143	=143
2T	2V7	32r	4c
.	.	(32CCLLL	.
.	.	32DD	.
.	.	32EEJJ	.
.	.	32FFLL	.
.	.	32GG	.
.	.	32AA	.
.	.	32BBJJJ)	.
.	.	8C'L	8r
.	.	8E'J	8g' 8b-' 8cc'
=144	=144	=144	=144
2T	2I	32r	4f' 4a' 4cc'
.	.	(32FFLLL	.
.	.	32GG	.
.	.	32AAJJ	.
.	.	32BB-LL	.
.	.	32C	.
.	.	32D	.
.	.	32EJJJ)	.
.	.	8F'L	8r
.	.	8A'J	8f 8cc 8ff
=145	=145	=145	=145
4P	4IV	8BB-	(32ddLLL
.	.	.	32ee
.	.	.	32ff
.	.	.	32ggJJ
.	.	8r	32aaLL
.	.	.	32bb-
.	.	.	32ccc
.	.	.	32dddJJJ)
4D	4V7	8C 8G 8B-	(32eeLLL
.	.	.	32ff
.	.	.	32gg
.	.	.	32aaJJ
.	.	8r	32bb-LL
.	.	.	32ccc
.	.	.	32ddd
.	.	.	32eeeJJJ)
=146	=146	=146	=146
4T	4I	8F 8A	16r
.	.	.	(32fffLLL
.	.	.	32eeeJJ
.	.	8r	32dddLL
.	.	.	32ccc
.	.	.	32bb-
.	.	.	32aaJJJ
4T	4V	8C 8E	32ggLLL
.	.	.	32ff
.	.	.	32ee
.	.	.	32ddJJ
.	.	8r	32ccLL
.	.	.	32b-
.	.	.	32a
.	.	.	32gJJJ)
=147	=147	=147	=147
4T	4I	8FF 8F	8f
.	.	8r	8r
=148	=148	=148	=148
2T	2I	8a	16r
.	.	.	16ff'LL
.	.	8r	16gg'
.	.	.	16aa'JJ
.	.	8f	16r
.	.	.	16aa'LL
.	.	8r	16bb-'
.	.	.	16ccc'JJ
=149	=149	=149	=149
4T	4V7b	8e	16r
.	.	.	16ccc'LL
.	.	8r	16gg'
.	.	.	16bb-'JJ
4T	4I	8f	16r
.	.	.	16bb-'LL
.	.	8r	16ff'
.	.	.	16aa'JJ
=150	=150	=150	=150
2T	2V	8cL	16r
.	.	.	16aa'LL
.	.	8cJ	16ee'
.	.	.	16gg'JJ
.	.	8cL	16dd'LL
.	.	.	16ff'
.	.	8cJ	16cc'
.	.	.	16ee'JJ
=151	=151	=151	=151
4T	4V	8c	16dd'LL
.	.	.	16ff'
.	.	8r	16ee'
.	.	.	16gg'JJ
4T	4I	8cc	16r
.	.	.	16cc'LL
.	.	8r	16dd'
.	.	.	16ee'JJ
=152	=152	=152	=152
2T	2I	8a	16r
.	.	.	16ff'LL
.	.	8r	16gg'
.	.	.	16aa'JJ
.	.	8f	16r
.	.	.	16aa'LL
.	.	8r	16bb-'
.	.	.	16ccc'JJ
=153	=153	=153	=153
4T	4V7b	8e	16r
.	.	.	16ccc'LL
.	.	8r	16gg'
.	.	.	16bb-'JJ
4T	4I	8f	16r
.	.	.	16bb-'LL
.	.	8r	16ff'
.	.	.	16aa'JJ
*	*	*clefF4	*
=154	=154	=154	=154
4P	4iib	8B-L	16r
.	.	.	16aa'LL
.	.	8B-J	16dd'
.	.	.	16gg'JJ
4D	4V7	8cL	16r
.	.	.	16ff'LL
.	.	8CJ	16b-'
.	.	.	16ee'JJ
=155	=155	=155	=155
4T	4I	8FL	16r
.	.	.	16gg'LL
.	.	8FFJ	16a'
.	.	.	16ff'JJ
=156	=156	=156	=156
2T	2I	16r	8a' 8aa'
.	.	16F'LL	.
.	.	16G'	8r
.	.	16A'JJ	.
.	.	16r	8f' 8ff'
.	.	16A'LL	.
.	.	16B-'	8r
.	.	16c'JJ	.
=157	=157	=157	=157
4T	4V7d	16r	8e' 8ee'
.	.	16c'LL	.
.	.	16G'	8r
.	.	16B-'JJ	.
4T	4Ib	16r	8f' 8ff'
.	.	16B-'LL	.
.	.	16F'	8r
.	.	16A'JJ	.
=158	=158	=158	=158
2T	2V	16r	8cc'L 8ccc'
.	.	16A'LL	.
.	.	16E'	8cc'J 8ccc'
.	.	16G'JJ	.
.	.	16D'LL	8cc'L 8ccc'
.	.	16F'	.
.	.	16C'	8cc'J 8ccc'
.	.	16E'JJ	.
=159	=159	=159	=159
2T	2V	16D'LL	8cc'L 8ccc'
.	.	16F'	.
.	.	16E'	8cc'J 8ccc'
.	.	16G'JJ	.
.	.	16r	8cc' 8ccc'
.	.	16C'LL	.
.	.	16D'	8r
.	.	16E'JJ	.
=160	=160	=160	=160
2T	2I	16r	8a' 8aa'
.	.	16F'LL	.
.	.	16G'	8r
.	.	16A'JJ	.
.	.	16r	8f' 8ff'
.	.	16A'LL	.
.	.	16B-'	8r
.	.	16c'JJ	.
=161	=161	=161	=161
4T	4V7d	16r	8e' 8ee'
.	.	16c'LL	.
.	.	16G'	8r
.	.	16B-'JJ	.
4T	4Ib	16r	8f' 8ff'
.	.	16B-'LL	.
.	.	16F'	8r
.	.	16A'JJ	.
=162	=162	=162	=162
4D	4Vb	16r	8g'L 8gg'
.	.	16A'LL	.
.	.	16E'	8g'J 8gg'
.	.	16G'JJ	.
4D	4V7c/V	16r	8a'L 8aa'
.	.	16G'LL	.
.	.	16D'	8b'J 8bb'
.	.	16F'JJ	.
=163	=163	=163	=163
4D	4V	16CLL	(4cc 4ccc
.	.	16E	.
.	.	16D	.
.	.	16CJJ	.
4D	4Vb/V/V	16BBLL	8dd'L) 8ddd'
.	.	16AA	.
.	.	16GG	8ee'J 8eee'
.	.	16FF#JJ	.
=164	=164	=164	=164
4D	4Cc/V	8GGL	16r
.	.	.	(16aaLL
.	.	8CJ 8E	16cc
.	.	.	16ggJJ)
4D	4V7/V	8GGL	16r
.	.	.	(16aaLL
.	.	8DJ 8F	16b
.	.	.	16ggJJ)
=165	=165	=165	=165
4D	4V	16CLL	8cc'L
.	.	16E	.
.	.	16D	8cc'J 8ccc'
.	.	16CJJ	.
4D	4Vb/V/V	16BBLL	8dd'L 8ddd'
.	.	16AA	.
.	.	16GG	8ee'J 8eee'
.	.	16FF#JJ	.
=166	=166	=166	=166
4D	4Cc/V	8GGL	16r
.	.	.	(16aaLL
.	.	8CJ 8E	16cc
.	.	.	16ggJJ)
4D	4V7/V	8GGL	16r
.	.	.	(16aaLL
.	.	8DJ 8F	16b
.	.	.	16ggJJ)
=167	=167	=167	=167
4D	4V	4C; 4E;	4cc;
=168	=168	=168	=168
2T	2I	8A	16r
.	.	.	16a'LL 16ff'
.	.	8r	16b-' 16gg'
.	.	.	16cc'JJ 16aa'
.	.	8F	16r
.	.	.	16ff'LL 16aa'
.	.	8r	16gg' 16bb-'
.	.	.	16aa'JJ 16ccc'
=169	=169	=169	=169
4T	4V7b	8E	16r
.	.	.	16aa'LL 16ccc'
.	.	8r	16ff#' 16aa'
.	.	.	16gg'JJ 16bb-'
4T	4I	8F	16r
.	.	.	16gg'LL 16bb-'
.	.	8r	16ee' 16gg#'
.	.	.	16ff'JJ 16aa'
=170	=170	=170	=170
2T	2V7	8CL 8B-	16r
.	.	.	16ee' 16gg'
.	.	8CJ 8A	16r
.	.	.	16ff'
.	.	8CL 8G	16r
.	.	.	16ee' 16bb-'
.	.	8CJ 8F	16r
.	.	.	16ff' 16aa'
=171	=171	=171	=171
4T	4V	8C 8c	16r
.	.	.	16ff'LL 16aa'
.	.	8r	16dd#' 16ff#'
.	.	.	16ee'JJ 16gg'
4T	4I	8cL	16r
.	.	.	16f'LL 16a'
.	.	8CJ	16g' 16b-'
.	.	.	16a'JJ 16cc'
=172	=172	=172	=172
2T	2I	8AL	16r
.	.	.	16a'LL 16ff'
.	.	8AAJ	16b-' 16gg'
.	.	.	16cc'JJ 16aa'
.	.	8FL	16r
.	.	.	16ff'LL 16aa'
.	.	8FFJ	16gg' 16bb-'
.	.	.	16aa'JJ 16ccc'
=173	=173	=173	=173
4T	4V7b	8EL	16r
.	.	.	16aa'LL 16ccc'
.	.	8EEJ	16ff#' 16aa'
.	.	.	16gg'JJ 16bb-'
4T	4I	8FL	16r
.	.	.	16gg'LL 16bb-'
.	.	8FFJ	16ee' 16gg#'
.	.	.	16ff'JJ 16aa'
=174	=174	=174	=174
4P	4vi	8DL	16r
.	.	.	16ff'LL 16aa'
.	.	8DDJ	16ee' 16gg'
.	.	.	16dd'JJ 16ff'
4P	4V/V	8GL	16r
.	.	.	16dd'LL 16ff'
.	.	8GGJ	16cc' 16ee'
.	.	.	16b'JJ 16dd'
=175	=175	=175	=175
2D	2V	16r	8e'L 8cc'
.	.	16CLL	.
.	.	16D	8ee'J 8gg'
.	.	16EJJ	.
.	.	16r	8ee'L 8gg'
.	.	16ELL	.
.	.	16F	8ee'J 8gg'
.	.	16F#JJ	.
=176	=176	=176	=176
4D	4Cc/V	8GGL	16r
.	.	.	16ee'LL 16gg'
.	.	8GJ	16dd' 16ff'
.	.	.	16cc'JJ 16ee'
4D	4V7/V	8GGL	16r
.	.	.	16f'LL 16dd'
.	.	8GJ	16e' 16cc'
.	.	.	16d'JJ 16b'
=177	=177	=177	=177
2D	2V	16r	8e'L 8cc'
.	.	16CLL	.
.	.	16D	8ee'J 8gg'
.	.	16EJJ	.
.	.	16r	8ee'L 8gg'
.	.	16ELL	.
.	.	16F	8ee'J 8gg'
.	.	16F#JJ	.
=178	=178	=178	=178
4D	4Cc/V	8GGL	16r
.	.	.	16ee'LL 16gg'
.	.	8GJ	16dd' 16ff'
.	.	.	16cc'JJ 16ee'
4D	4V7/V	8GGL	16r
.	.	.	16f'LL 16dd'
.	.	8GJ	16e' 16cc'
.	.	.	16d'JJ 16b'
=179	=179	=179	=179
4D	4V	4C	4e [4cc
4D	4I	4r	16ccLL]
.	.	.	(16b
.	.	.	16cc
.	.	.	16cc#JJ)
*	*	*clefG2	*
=180	=180	=180	=180
2D	2V/ii	16r	(8ddL
.	.	(16f#LL	.
.	.	16g	8ccJ
.	.	16aJJ)	.
.	.	16r	8b-L
.	.	(16dLL	.
.	.	16e	8aJ)
.	.	16f#JJ)	.
=181	=181	=181	=181
4P	4ii	(8gL	16r
.	.	.	(16b-LL
.	.	8fJ	16cc
.	.	.	16ddJJ)
4P	4V7c/V	8eL	16r
.	.	.	(16gLL
.	.	8dJ)	16a
.	.	.	16b-JJ)
=182	=182	=182	=182
2D	2V	16r	(8ccL
.	.	(16eLL	.
.	.	16f	8b-J
.	.	16gJJ)	.
.	.	16r	8aL
.	.	(16cLL	.
.	.	16d	8gJ)
.	.	16eJJ)	.
=183	=183	=183	=183
4T	4I	(4f	16r
.	.	.	(16aLL
.	.	.	16b-
.	.	.	16bJJ
=184	=184	=184	=184
2T	2I	8A'L	16r
.	.	.	16f'LL 16ff'
.	.	8c'J	16g' 16gg'
.	.	.	16a'JJ 16aa'
.	.	8A'L	16r
.	.	.	16a'LL 16aa'
